www/assets/icons/fullscreen.svg

<svg xmlns="http://www.w3.org/2000/svg" width="24" height="24" viewBox="0 0 24 24" fill='currentColor'><path d="M7 14H5v5h5v-2H7zm-2-4h2V7h3V5H5zm12 7h-3v2h5v-5h-2zM14 5v2h3v3h2V5z"/></svg>

<svg width="24" height="24" viewBox="0 0 24 24" xmlns="http://www.w3.org/2000/svg" fill='currentColor'><path d="M7 14H5V19H10V17H7V14ZM5 10H7V7H10V5H5V10ZM17 17H14V19H19V14H17V17ZM14 5V7H17V10H19V5H14Z"/></svg>
